X:276
T:Over the Moor to Maggie
Z: id:dc-reel-256
M:C
L:1/8
K:G Major
GF|G2GA BABd|efge dBAG|EAAG ABAG|EAAG AcBA|!
G2GA BABd|efge dBAG|EGGF GAGE|DGGF G2:|!
ga|b2gb a2fa|gfge dcBd|eaag abag|eaag a2ga|!
b2gb a2fa|gfge dcBd|eggf gage|dggf g2:|!
cd|e3c d3B|c3A B2AG|EAAG ABAG|EAAG A2cd|!
e3c d3B|c3A B2AG|EGGF GAGE|DGGF G2:|!

